X:1
T:Title
%%score { ( 1 3 5 ) | ( 2 4 ) }
L:1/8
M:4/4
K:A
V:1 treble nm="Grand Piano"
V:3 treble 
V:5 treble 
V:2 bass 
V:4 bass 
V:1
 z4 z2[Q:1/4=100] [Ec]>[DB] | [CA]>[CE] [CE]>[CE] [CE]>[CE] [CA]>[DB] | A2 G2 G2 [Bd]>[Gc] | %3
 [GB]>E E>E E>E B>c | [DB]2 [CA]2 [CA]2 e>d | c>A A>A A2 B>c | [Fd]2 [DF]2 [Fd]2 [Ec]>B | %7
 A>B c>d c2 B2 |[M:3/4] [CA]6 |[M:1/4] [CE]>[CE] |[M:4/4] [Ec]6 z2 | [GB]6 z2 | [Gd]6 z2 | %13
 [Ac]6 z2 | [CA]>[CB] [CA]>[EG] F2 F>F | [^DB]>[Dc] [DB]>[FA] [EG]2 [EG]>[EG] | %16
 E->[E-B] [Ec]>[Fd] [Ec]2 [DB]2 |[M:3/4] [CA]6 |] %18
V:2
 z4 z2 [A,,A,]>[A,,A,] | [A,,A,]>[A,,A,] [A,,A,]>[A,,A,] [A,,A,]>[A,,A,] [A,,A,]>[A,,A,] | %2
 [E,CE]2 [E,B,E]2 [E,B,E]2 [E,E]>[E,E] | [E,E]>[E,G,] [E,G,]>[E,G,] [E,G,]>[E,G,] [E,G,E]>[E,E] | %4
 [A,,E,]2 [A,,E,]2 [A,,E,]2[K:treble] [A,CE]>[A,B,E] | %5
 [A,E]>[A,CE] [A,CE]>[A,CE] [A,C]>[A,C] [A,D=G]>[A,EG] | [D,D]2 [D,A,]2 [D,A,]2 [D,A,]>[D,A,D] | %7
 C2 z2 z4 |[M:3/4] [A,,A,]6 |[M:1/4] [A,,A,]>[A,,A,] |[M:4/4] z4 A,4 | E,>E, E,>E, E,2 E,>E, | %12
 E,2 E,2 z z/ G/ [E,E]2 | [A,E]>A, E,>C, A,,2 [A,,A,]>[A,,A,] | %14
 [A,,A,]>[A,,A,] [A,,A,]>[A,,A,] [D,A,D]2 [D,A,D]>[D,A,D] | %15
 [B,,B,]>[B,,B,] [B,,B,]>[B,,B,] [E,B,]2 [D,B,]>[D,B,] | %16
 [C,A,]>[B,,G,] [A,,A,]>[D,A,] [E,A,]2 [E,G,]2 |[M:3/4] [A,,A,]6 |] %18
V:3
 x8 | x8 | x8 | x8 | x8 | z4 z z/ A/- A/ z/ z | x8 | x8 |[M:3/4] x6 |[M:1/4] x2 | %10
[M:4/4] z2 A,2 z z/ [EA]/ [DEG]>[CEA] | E>E E>E E2 E>E | E2 E2 z z/ B/ [FA]>[GB] | %13
 z z/ E/ E>E E2 [CE]>[CE] | x8 | x8 | A2 z2 z4 |[M:3/4] x6 |] %18
V:4
 x8 | x8 | x8 | x8 | x6[K:treble] x2 | x8 | x8 | %7
 [E,A,]->[E,-A,-D] [E,A,E]>[E,A,F] [E,A,E]2 [E,G,D]2 |[M:3/4] x6 |[M:1/4] x2 | %10
[M:4/4] [A,,A,]2 A,,2 z z/ C/ B,>A, | x8 | z4 E,2 z2 | x8 | x8 | x8 | x8 |[M:3/4] x6 |] %18
V:5
 x8 | x8 | x8 | x8 | x8 | x8 | x8 | x8 |[M:3/4] x6 |[M:1/4] x2 |[M:4/4] x8 | x8 | z4 E2 z2 | x8 | %14
 x8 | x8 | x8 |[M:3/4] x6 |] %18

